X:1
T:God Be with You, 98.89
T:William Gould Tomer, 1880
T:God Be with You, 98.89
T:Public Domain
C:William Gould Tomer, 1880
Z:Public Domain
%%score ( 1 2 ) ( 3 4 )
L:1/8
M:4/4
K:C
V:1 treble 
V:2 treble 
V:3 bass 
V:4 bass 
V:1
 [CE]3 [CE] [CE][CE][CE][CE] | [CG]2 [B,D]2 [CE]4 | [CA]3 [FA] [FA][FA][FA][FA] | [FA]4 [EG]4 | %4
 [DG]3 [DG] [DG][DG][FG][FG] | [EG]4 [CE]4 | [CE]3 [CE] [FA][EG]C[CD] | [CE]2 [B,D]2 C2 | %8
 [CE]>[DF] | G2 c2 [Ge]2 [Gd]>[Gc] | [FA]2 [Ac]4 [GB]>[FA] | [EG]3 [FA] [EG][CE]CE | %12
 [B,D]6 [CE]>[DF] | G2 c2 [Ge]2 [Gd]>[Gc] | [FA]2 [Ac]4 [Fc]>[FA] | [EG][CE]CD [CE]2 [B,D]2 | C6 |] %17
V:2
 x8 | x8 | x8 | x8 | x8 | x8 | x8 | x6 | x2 | E4 x4 | x8 | x8 | x8 | E4 x4 | x8 | x3 C x4 | C6 |] %17
V:3
 [C,G,]3 [C,G,] [C,G,][C,G,][C,G,][C,G,] | [E,G,]2 G,2 [C,G,]4 | F,3 [F,C] [F,C][F,C][F,C][F,C] | %3
 [C,C]4 [C,C]4 | [G,B,]3 [G,B,] [G,B,][G,B,][G,,D][G,,D] | [C,C]4 [C,G,]4 | %6
 [C,G,]3 [C,G,] [C,C][C,C][E,G,][F,A,] | G,2 [G,,F,]2 [C,E,]2 | z2 | %9
 z2 [C,G,][C,G,] [C,C]2 [E,C]>[E,C] | [F,C]2 [F,C]2 [F,C]2 [F,C]>[F,C] | [C,C]3 [C,C] CG,E,G, | %12
 [G,,G,]2 [G,,G,][G,,G,] [G,,G,]2 z2 | z2 [C,G,][C,G,] [C,C]2 [E,C]>[E,C] | %14
 [F,C]2 [F,C]2 [F,C]2 [F,A,]>[F,C] | [C,C][C,G,][E,G,][F,A,] G,2 [G,,F,]2 | [C,E,]6 |] %17
V:4
 x8 | x8 | F,3 x5 | x8 | x8 | x8 | x8 | G,2 x4 | x2 | x8 | x8 | x4 C,2 C,2 | x8 | x8 | x8 | x8 | %16
 x6 |] %17

